X:1
T:Merry Go Round of Life
T:Merry Go Round of Life
T:Themes from "Howl's Moving Castle"
T:Joe Hisiaishi
T:Arr. Collin Wolfhope
T:2004 Studio Ghibli
T:2004 Studio Ghibli
T:2004 Studio Ghibli
T:2004 Studio Ghibli
T:2004 Studio Ghibli
T:2004 Studio Ghibli
T:2004 Studio Ghibli
T:2004 Studio Ghibli
T:2004 Studio Ghibli
C:Joe Hisiaishi
Z:Arr. Collin Wolfhope
Z:2004 Studio Ghibli
%%score 1 2 3 4
L:1/8
Q:1/4=110
M:3/4
K:Bb
V:1 treble nm="Trombone" snm="Tbn."
V:2 treble nm="Trombone" snm="Tbn."
V:3 treble nm="Trombone" snm="Tbn."
V:4 treble nm="Trombone" snm="Tbn."
V:1
"^Moderato = 110"!p! D!<(!E DE DE | CD CD CD | B,C B,C B,!<)!C |!f! (A,/G,/)^F,- F,4 | %4
 z2 z2 !fermata!^F2 |[Q:1/4=100]"^Andante = 100" (D,2 G,2) B,2 |!mp! !tenuto!D4 !tenuto!D2 | %7
!<(! (C2 B,2) A,2!<)! |!f! B,6 | z2 z (G, B,)D | G4 G2 | (G2 F2) E2 | F6 |!ff! z2 z (A, D)F | %14
 (A4 G2) | (F2 =E2) F2 | (G4 F2) | (=E4 D2) | (C2 B,2) C2 | (D2 C2) G,2 | A,3 (D, G,)A, | %21
"^expressively" !fermata!z/ (A,/4C/4)B,- B,2 A,2 | z3/4 (C/4B,-) B,A, (G,_G,) | %23
 (E,D,-) !fermata!D,4 |[Q:1/4=184]"^Waltz = 184" !^!G,,2 .G,2 .G,2 | !^!D,2 .G,2 .G,2 | %26
 !^!G,,2 .B,2 .B,2 |!p! D,2!<(! .G,2 .G,2!<)! |!mf! B,4 B,2 | D,2 .^F,2 .F,2 | G,2 .G2 .G2 | %31
 (G,2 F,2) D,2 | C E,2- E, E,2 | F,2 .C2 .C2 | B,2 .D2 .D2 | A,2 G,2 F,2 | =E,2 .D2 .D2 | %37
!>(! A,2 A,2 A,2 | D,2 D2 A,2 | (C4 A,2)!>)! |!pp! C2!<(! F,2 A,2 | A,2 C2 =E,2!<)! | %42
!mf! ^F,2 .A,2 .A,2 | D,2 .G,,2 .G,,2 | C,2 .B,2 .B,2 | D,2 .^F,2 .F,2 | G,2 .G,2 .B,2 | %47
 !>!F,3 !>!B,3 | E,2 .E2 .B,2 | F,2 .C2 .C2 | B,2 .F,2 .F,2 | F,2 F,2 D2 | =E,2 .B,2 .B,2 | %53
 A,2 .=E,2 .E,2 | D,2 .D,2 .A,2 | C2 .D,2 .F,2 | B,2 .F,2 .F,2 | A,2 .=E,2 .E,2 |!mf! D2 ^F,2 F,2 | %59
 ^F,4 F,2 | D,2 .^F,2 .F,2 | D,2 .^F,2 .F,2 | F,2 E,2 D,2 | F,2 A,,2 A,2 | B,,2 F,2 D,2 | %65
 B,2 .F,2 .F,2 | F,2 G,2 B,2 | F,2 F,2 A,2 | B,2 D2 F2 | B,2 F2 D2 | z2!p! (A,,!<(!^C,) .D,.=E, | %71
 (F,=E,) .F,.G, (A,F,)!<)! |!ff! z2 .G,.^F, (G,A,) | G,F, (=E,D,) .^C,.B,, |!mf! D,2 F,2 A,2 | %75
 D,2 D,2 A,,2 |!mf!!>(! =E,2 A,2!>)! ^C2 | z4 A,,2 | A,,4 .A,,2 | A,,2 B,,2 C,2 | D,6 | %81
 F,2 B,2 D,2 | =E4 .E2 | C,2 .=E,2 .E,2 | z2!ff! (3(G,_G,)F, (3=E,_E,D, | %85
 C,2 (3(C=B,)_B, (3A,_A,G, | =E,2 ^D,2 E,2 | (G,2 F,2) =E,2 | (D,2 ^C,2) D,2 | =E,4 A,2 | C4 B,2 | %91
 A,4 G,2 |!ff! ^F,A, (3(CD)C B,2 | z2 (3(B,C)B, A,2 | z2 (3(G,A,)G, ^F,2 |!p! z2 (3(E,^F,)E, D,2 | %96
!mf! G,,2 .D,2 .D,2 | D,2 .^F,2 .F,2 | G,2 D,2 D,2 | C,3 B,,3 |!ff! z2 (G,C) .D.E | C2 z4 | %102
 z2 (F,=E,) .F,.G, | (A,D,) !tenuto!.A,,!tenuto!.B,, !tenuto!.D,!tenuto!.F, | A,4 G,,2- | %105
 G,,2 (F,=E,) ^D,E, | D2 .F,2 .F,2 | C2 .F,2 .F,2 | B,2 .F,2 .F,2 | G,2 G,^F, G,=E, | %110
 z2 (3(A,G,)^F, (3(=E,_E,)D, | (3(D^C)=B, (3(A,G,)^F, (3(=E,_E,)_D, | %112
"^ritardando" (3(D^C)=B, (3(A,G,)^F, (3(=E,_E,)D, |[Q:1/4=110]"^Andante = 110" z2 z4 | %114
 (C3 =B,) A,2 | (^F,3 A,) [=B,B,]2 | =B,4 !fermata!=B,,2 | %117
[Q:1/4=150]"^Allegro = 150" !^!=E,2 .^G,,2 .G,,2 | !^!=E,2 .E,2 .E,2 |!pp!!<(! =E,^D, E,^F, ^G,C | %120
 =B,^A, B,^D =E^F | ^G,^F, G,=B, C^D!<)! | %122
!mp! !fermata!=E2[Q:1/4=54]"^Slower, Expressive"!p!!<(! =E,^G, E!<)!^G |!mf! !fermata!=B6 |] %124
V:2
!p! B,!<(!C B,C B,C | A,B, A,B, A,B, | G,A, G,A, G,!<)!A, |!f! (^F,/E,/)D,- D,4 | %4
 z2 z2 !fermata!D2 | z6 |!p! !tenuto!B,4 !tenuto!B,2 |!<(! ^F,2 F,2 F,2!<)! |!mf! G,6 | G,2 B,4 | %10
 E4 E2 | C2 C2 C2 | D6 |!f! B,2 D4 | F4 D2 | ^C2 C2 C2 | D2 D4 | A,2 F,4 | F,2 D4 | %19
!>(! G,2 G,2 G,2!>)! |!p!!<(! ^F,2!<)! C4 |!f! !>!!fermata!E,6 | !>!D6 | z6 | z6 | z6 | z6 | %27
!mf! (D,2!<(! G,2) B,2!<)! |!ff! D4 D2 | (C2 B,2) A,2 | B,6 | (G,2 B,2) D2 | G4 G2 | (G2 F2) E2 | %34
 F6 | (A,2 D2) F2 | (A4 G2) |!>(! (F2 =E2) F2 | (G4 F2) | (=E4 D2)!>)! |!pp! (C2!<(! B,2) C2 | %41
 (D2 C2) G,2!<)! |!mf! A,4 z2 | D,2 .D,2 .D,2 | C,2 .G,2 .G,2 | D,2 .^F,2 .F,2 | G,2 B,2 G,2 | %47
 !>!_A,3 !>!F,3 | E,2 .B,2 .G,2 | F,2 .E,2 .E,2 | B,2 .A,2 .A,2 | F,2 D2 F,2 | =E, E,2- E, E,2 | %53
 A,,2 .=E,2 .A,,2 | D,2 .A,2 .D,2 | C,2 .A,,2 .A,,2 | B,,2 .A,,2 .A,,2 | A,,2 .A,,2 .A,,2 | %58
!mf! D2 A,2 D,2 | ^F,4 F,2 | D,2 ^F,2 A,2 | D,2 ^F,2 A,2 | F,2 .B,,2 .B,,2 | F,2 .F,2 .F,2 | %64
 B,2 F,2 D2 | B,2 .A,2 .A,2 | F,2 B,2 D2 | F,2 A,2 F,2 | B,,2 F,2 D,2 | B,,2 D,2 F,2 | %70
 D,2!p! .F,2!<(! .F,2 | D,2 A,,2 D,2!<)! |!mp! =E,4 ^C,2 | A,,2 ^C,2 =E,,2 | %74
!ff! z2 (A,^G,) .A,.B, | (A,B,) .G,.A, (F,G,) |!f! .=E,!>(!.F, (G,F,) .E,!>)!.D, | %77
!p! (^C,!<(!A,,) (=B,,C,) (^D,G,)!<)! |!ff! ^F,4 .F,2 | (^F,2 G,2) A,2 | B,6 | B,2 F,2 D,2 | %82
 G,4 .G,2 | G,2 A,2 B,2 | C,6 | z2 G,2 F,2 |!mf! =B,,2 .C,2 .C,2 | =E,2 .=B,2 .B,2 | %88
 A,,2 A,,2 A,,2 | =E,4 z2 | E,4 E,2 | z6 |!f! D,2 ^F,2 D2 | z2 ^F,4 | z2 D,4 |!f! (D,2 G,2) B,2 | %96
 !>!D2 !>!D2 !>!D2 | C2 CA, CA, | (B,A,) G,^F, E,D, | (G,2 B,2) D2 | !>!G3 !^!G2 .G | %101
 (G2 A2) (FE) | F6 | A,2 D2 F2 |!ff! A,4 G,2- | G,2 (F,=E,) ^D,E, | (G,4 F,2-) | %107
 F,2 (=E,D,) (^C,D,) | D2 (CD) CB, | A,3 =B, ^C2 | D6- | D6- |!mf! D6 | z (3=E/^F/E/ ^D2 E2 | %114
 (=E3 D) C2 | (=B,3 ^C) ^D2 | ^D4 !fermata!=B,,2 | !^!=E,2 .E,2 .E,2 | !^!=E,2 .^G,,2 .G,,2 | %119
!pp!!<(! =B,,C, =E,^F, ^G,G, | ^F,F, ^G,^A, =B,C | =B,A, ^G,^F, G,^A,!<)! |!mp! !fermata!=B,2 z4 | %123
!mf! !fermata!^G,6 |] %124
V:3
 z6 | z6 | z6 | z6 | (D,A,) (D^F) !fermata!A,2 | z6 |!p! !tenuto!G,4 !tenuto!G,2 | %7
!<(! C,2 C,2 C,2!<)! |!mf! D,6 | G,2 D4 | B,4 B,2 | G,2 F,2 E,2 | A,6 |!f! B,2 B,4 | D4 B,2 | %15
 G,2 G,2 G,2 | A,2 A,4 | F,2 A,4 | D,2 B,4 |!>(! =E,2 A,4!>)! |!p!!<(! D,2!<)! G,4 | %21
!f! !fermata!A,6 | A,6 | z6 | !^!G,2 .D2 .D2 | !^!D,2 .D2 .D2 | !^!G,2 .D2 .D2 | %27
!p! G,2!<(! .D2 .D2!<)! |!mf! G,2 .D2 .D2 | D,2 .^F,2 .F,2 | G,2 .D2 .D2 | (E,2 B,2) F,2 | %32
 G,2 .D2 .D2 | F,2 .A,2 .A,2 | B,2 .A,2 .A,2 | F,2 .A,2 .A,2 | =E,2 .B,2 .B,2 |!>(! A,2 .^C2 .C2 | %38
 (C4 D2) | C2 .D2 .D2!>)! |!p! F,2!<(! F,2 A,2 | A,2 G,2 G,2!<)! |!f! A,2 C2 =E2 | (D,2 G,2) B,2 | %44
 D4 D2 | (C2 B,2) A,2 | B,6 | (G,2 B,2) D2 | G4 .G2 | (G2 A2) (FE) | F6 | (A,2 D2) F2 | A4 G,2- | %53
 G,2 (F=E) _E=E | (G4 F2-) | F2 (=E2 ^C)D | (D2- D)C B,2 | (A,2- A,)=B, ^C2 |!mf! D6 | ^F,4 F,2 | %60
 D,2 .A,2 .A,2 | D,2 .A,2 .A,2 | G,4 F,2 | E,2 D,2 B,,2 | D,2 E,2 F,2 | B,,2 .D,2 .D,2 | G,4 F,2 | %67
 E,2 D,2 E,2 | F,6 | z6 | D,2!p! .A,,2!<(! .A,,2 | D,2 F,2 A,,2!<)! |!mp! =E,2 .A,2 .A,2 | %73
 A,2 .=E,2 .E,2 | A,4 A,2 | (A,2!>(! G,2)!>)! F,2 |!mp! ^C,6 |!p! A,,2!<(! A,,2 ^C,2!<)! | %78
!mf! D,2 .^F,2 .F,2 | D,2 .^F,2 .F,2 | G,2 F,2 B,2 | D2 F,2 D,2 | =E,2 .C2 .C2 | C,2 .=E,2 .E,2 | %84
 F,2 =E,2 A,2 | F,2 =E,2 A,2 |!mf! =B,2 .A,2 .A,2 | =E,2 .^G,2 .G,2 | A,2 A,2 A,2 | A,2 .^C2 .C2 | %90
 C2 .G,2 .G,2 | C2 G,2 C2 |!ff! ^F,A, (3(CD)C B,2 | z2 (3(B,C)B, A,2 | z2 (3(G,A,)G, ^F,2 | %95
!p! z2 (3(E,^F,)E, D,2 |!ff! z2 (B,A,) .B,.C | A,2 z4 | z2 (G,^F,) .G,.A, | !>!F,3 !>!B,3 | %100
 G,,2 .D,2 .D,2 | F,,2 .A,,2 .A,,2 | F,,2 A,,2 C,2 | F,,2 .A,,2 .A,,2 | =E,,2 .G,,2 .G,,2 | %105
 =E,2 ^C2 G,2 | D,2 .D2 .D2 | C2 .D2 .D2 | B,2 .D2 .D2 | =E,2 .A,2 .G,2 | D,2 .A,2 .A,2 | %111
 ^F2 D2 ^F,2 | D,2!mf! A,2 ^F,2 | z2 z4 | (A,3 G,) =E,2 | (^D,3 ^C,) ^F,2 | ^F,4 !fermata!=B,2 | %117
 =E6- | E6 |!pp!!<(! =E,^D, E,D, E,D, | =E,3 ^D, E,D, | =E,3 ^D, E,D,!<)! | %122
!mp! !fermata!=E,2!p!!p!!<(!!<(! E,^G, =E!<)!!<)!^G |!f! !fermata!=E6 |] %124
V:4
 z6 | z6 | z6 | z6 | z2 z2 !fermata!^F,2 | z6 |!p! E,2 E,4 |!<(! D,2 ^F,2 A,2!<)! |!mf! G,2 D4 | %9
 G,2 B,4 | G,2 G,4 | F,2 C4 | B,2 D4 |!f! B,2 F,4 | B,2 D4 | A,2 G,4 | D,2 D4 | C,2 D4 | B,2 B,4 | %19
!>(! A,2 C4!>)! |!p!!<(! D,2!<)! D,4 |!f! !fermata!^F,6 | ^F,6 | z6 | !^!G,2 .B,2 .B,2 | %25
 !^!D,2 .B,2 .B,2 | !^!G,2 .B,2 .B,2 |!p! G,2!<(! .B,2 .B,2!<)! |!mf! C,2 .G,2 .G,2 | D,2 .D2 .D2 | %30
 G,2 .D2 .D2 | (G,2 D2) !tenuto!D2 | C,2 .G,2 .G,2 | F,2 A,2 F,2 | B,2 .F,2 .F,2 | F,2 A,2 C2 | %36
 =E,2 .G,2 .G,2 |!>(! A,2 .=E,2 .E,2 | D,2 A,2 F,2 | C,2 .F,2 .F,2!>)! |!pp! B,2!<(! F,2 F,2 | %41
 A,2 =E,2 E,2!<)! |!mf! D,2 .^F,2 .F,2 | C,2 .B,,2 .B,,2 | B,,2 .G,2 .G,2 | D,2 .D2 .D2 | %46
 G,2 .D2 .D2 | !>!C,3 !>!D,3 | E,2 .G,2 .E,2 | F,2 .A,2 .A,2 | F,2 .D,2 .D,2 | F,2 A,,2 A,,2 | %52
 =E,2 .G,2 .G,2 | A,,2 .^C,2 .C,2 | D2 .F2 .F2 | C,2 .F,2 .F,2 | B,,2 .D,2 .D,2 | A,,2 .^C,2 .C,2 | %58
!f! D,2 (^F,2 G,2) | A,2 ^F,4 | z2 (D,2 =E,2) | (^F,2 D,2) (D2 | E4) !tenuto!D2 | (C2 B,2) A,2 | %64
 (B,2 C2) D2 | !tenuto!F,4 (F,2 | E4) !tenuto!D2 | (C2 B,2) C2 | D6 | z4 .D2 | %70
!mp! (3(D!<(!=E)D ^C2 D2 | (F2 =E2) D2!<)! |!f! ^C4 (C=E) | A,4 A,2 | F,4 F,2 | (F,2 =E,2) _D,2 | %76
!mf!!>(! (G,4!>)! =E,2) |!p! A,!<(!A, (G,A,) =E2!<)! |!mf! D,2 .D2 .D2 | D,2 .^F,2 .F,2 | %80
 z2!ff! (3(F=E)_E (3D_DC | B,2 (3(B,A,)_A, (3G,_G,F, | =E4 .E2 | (=E2 F2) G2 | A,6 | z2 z2 z2 | %86
!mf! =B,2 .^F,2 .F,2 | =E,2 E,2 =E2 | A,2 ^C2 A,2 | A,,2 ^C,2 A,,2 | C,2 G,,2 C,2 | %91
 C,2 .G,,2 .G,,2 |!f! z2 (A,2 G,2) | z2 (G,2 ^F,2) | z2 (E,2 D,2) |!mf! z2 ^F,2 F,2 | %96
!ff! z2 (G,^F,) .G,.A, | ^F,2 z4 | z2 (E,D,) .E,.F, | !>!G,3 !>!F,3 | G,2 .B,,2 .B,,2 | %101
 F,2 .C,2 .C,2 | (A,C) D2 C2 | F,2 .D,2 .D,2 | =E,2 .B,,2 .B,,2 | =E,2 G,2 ^C2 | D2 .A,2 .A,2 | %107
 C2 .A,2 .A,2 | B,2 .A,2 .A,2 | A,2 .=E,2 .E,2 | D,2 .A,2 .A,2 | A,2 ^F,2 D,2 |!p! D,2 ^F,2 A,2 | %113
 z2 z4 | (C3 =B,) A,2 | (^F,3 =E,) =B,,2 | =B,,4 !fermata!B,,2 | =E,6- | E,6 | %119
!pp!!<(! =B,,^A,, B,,A,, B,,A,, | =B,,3 ^A,, B,,A,, | =B,,3 ^F,, ^G,,^A,,!<)! | %122
!p! !fermata!=B,,2 z4 |!f! !fermata!=B,,6 |] %124

